demos/KANBAN/public/icons/Cancel.svg

<svg width="30" height="30" viewBox="0 0 30 30" fill="none" xmlns="http://www.w3.org/2000/svg">
<rect width="30" height="30" rx="4" fill="#E7E5FF"/>
<path d="M10.7369 19.3687C10.7369 19.1802 10.5868 19.0278 10.401 19.0278H5.19609C5.01033 19.0278 4.86023 19.1802 4.86023 19.3687C4.86023 19.5573 5.01033 19.7096 5.19609 19.7096H10.4048C10.5865 19.7096 10.7368 19.5573 10.7368 19.3687H10.7369Z" fill="#817AF3"/>
<path d="M5.19609 20.4636C5.01033 20.4636 4.86023 20.616 4.86023 20.8045C4.86023 20.9931 5.01033 21.1454 5.19609 21.1454H8.02562C8.21138 21.1454 8.36148 20.9931 8.36148 20.8045C8.36148 20.616 8.21138 20.4636 8.02562 20.4636H5.19609Z" fill="#817AF3"/>
<path d="M22.5175 13.1831C19.5457 13.1831 17.1272 15.638 17.1272 18.6543C17.1272 21.6708 19.5457 24.1256 22.5175 24.1256C25.4893 24.1256 27.9078 21.6707 27.9078 18.6543C27.9078 15.638 25.4893 13.1831 22.5175 13.1831ZM22.5175 23.4439C19.917 23.4439 17.7988 21.2938 17.7988 18.6543C17.7988 16.0148 19.9171 13.8648 22.5175 13.8648C25.118 13.8648 27.2362 16.0149 27.2362 18.6543C27.2364 21.2937 25.122 23.4439 22.5175 23.4439Z" fill="#817AF3"/>
<path d="M25.7108 16.733C25.7108 16.3801 25.5764 16.0471 25.3315 15.7984C24.8295 15.2889 24.0075 15.2889 23.4977 15.7984L22.5216 16.7891L21.5415 15.7943C21.0395 15.293 20.2175 15.293 19.7117 15.7984C19.4666 16.0471 19.3284 16.3801 19.3284 16.733C19.3284 17.0859 19.4628 17.4189 19.7117 17.6677L20.6838 18.6584L19.7117 19.6451C19.4666 19.8939 19.3284 20.2269 19.3284 20.5798C19.3284 20.9327 19.4628 21.2618 19.7117 21.5144C20.178 21.9877 21.083 21.9877 21.5455 21.5144L22.5216 20.5236L23.4977 21.5144C23.7388 21.7591 24.0746 21.8994 24.4145 21.8994C24.7544 21.8994 25.0903 21.7591 25.3313 21.5144C25.5764 21.2657 25.7107 20.9327 25.7107 20.5798C25.7107 20.2269 25.5762 19.8939 25.3313 19.6451L24.3592 18.6584L25.3313 17.6677C25.5726 17.415 25.7109 17.0861 25.7109 16.733L25.7108 16.733ZM24.8533 17.1823L23.644 18.4137C23.5135 18.5461 23.5135 18.7628 23.644 18.8952L24.8533 20.1227C24.972 20.2431 25.0351 20.4034 25.0351 20.572C25.0351 20.7404 24.9718 20.9009 24.8533 21.0213C24.6201 21.2581 24.2013 21.2581 23.968 21.0213L22.7548 19.7899C22.6877 19.7218 22.6047 19.6896 22.5178 19.6896C22.4308 19.6896 22.3438 19.7218 22.2807 19.7899L21.0675 21.0213C20.8501 21.242 20.3996 21.242 20.1862 21.0213C20.0676 20.9009 20.0004 20.7406 20.0004 20.572C20.0004 20.4036 20.0676 20.2431 20.1862 20.1227L21.3994 18.8952C21.4627 18.8309 21.4982 18.7428 21.4982 18.6546C21.4982 18.5622 21.4627 18.478 21.3994 18.4139L20.1862 17.1825C20.0676 17.0621 20.0004 16.9018 20.0004 16.7332C20.0004 16.5648 20.0676 16.4043 20.1822 16.2839C20.4273 16.0392 20.8224 16.0392 21.0635 16.2799L22.2807 17.5113C22.4111 17.6437 22.6246 17.6437 22.755 17.5113L23.9644 16.2837C24.2095 16.039 24.6086 16.035 24.8497 16.2837C24.9684 16.4041 25.0315 16.5644 25.0315 16.733C25.0351 16.9015 24.9718 17.0619 24.8534 17.1824L24.8533 17.1823Z" fill="#817AF3"/>
<path d="M18.293 23.1833H5.52029C4.4494 23.1833 3.57991 22.3008 3.57991 21.2138V7.65558C3.57991 6.56861 4.4494 5.68607 5.52029 5.68607H9.64214V9.90601C9.64214 10.1788 9.78042 10.4194 10.0137 10.5559C10.1283 10.624 10.2547 10.6561 10.3812 10.6561C10.5076 10.6561 10.6381 10.6201 10.7527 10.5518L12.2426 9.66538C12.2624 9.65337 12.2901 9.65337 12.3097 9.66538L13.7996 10.5479C14.0289 10.6844 14.3094 10.6883 14.5387 10.552C14.7719 10.4155 14.9102 10.1749 14.9102 9.90213L14.91 5.682H19.0319C20.1027 5.682 20.9762 6.56455 20.9762 7.65152V12.2766C20.9762 12.4652 21.1263 12.6175 21.3121 12.6175C21.4979 12.6175 21.648 12.4652 21.648 12.2766L21.6481 7.65152C21.6481 6.18743 20.4745 5 19.032 5L5.52014 5.00018C4.0777 5.00018 2.90784 6.19149 2.90784 7.6517V21.21C2.90784 22.674 4.08152 23.8615 5.52014 23.8615L18.2929 23.8613C18.4786 23.8613 18.6287 23.7089 18.6287 23.5204C18.6289 23.3357 18.4786 23.1834 18.2929 23.1834L18.293 23.1833ZM14.2385 9.90213C14.2385 9.92614 14.2266 9.94627 14.2068 9.95827C14.1832 9.97027 14.1633 9.97027 14.1397 9.95827L12.6498 9.07572C12.5352 9.00758 12.4047 8.97139 12.2783 8.97139C12.1478 8.97139 12.0214 9.0074 11.9067 9.07572L10.4168 9.96215C10.397 9.97415 10.3734 9.97415 10.3497 9.96215C10.3261 9.95014 10.318 9.93001 10.318 9.90601V5.68219H14.2423V9.90213H14.2385Z" fill="#817AF3"/>
<path d="M13.6852 18.4379H16.1434C16.3291 18.4379 16.4792 18.2856 16.4792 18.097C16.4792 17.9085 16.3291 17.7561 16.1434 17.7561H13.6852C13.2109 17.7561 12.8237 18.1493 12.8237 18.6346V20.6403C12.8237 21.1218 13.2111 21.5147 13.6852 21.5147H16.6175C16.8033 21.5147 16.9534 21.3624 16.9534 21.1738C16.9534 20.9853 16.8033 20.8329 16.6175 20.8329H13.6852C13.5824 20.8329 13.4995 20.7487 13.4995 20.6444V18.6386C13.4995 18.5262 13.5824 18.4379 13.6852 18.4379Z" fill="#817AF3"/>
</svg>

<svg xmlns="http://www.w3.org/2000/svg" width="30" height="30" fill="none"><rect width="30" height="30" fill="#E7E5FF" rx="4"/><path fill="#817AF3" d="M10.737 19.369a.338.338 0 0 0-.336-.341H5.196a.338.338 0 0 0-.336.34c0 .19.15.342.336.342h5.209a.337.337 0 0 0 .332-.341Zm-5.541 1.095a.338.338 0 0 0-.336.34c0 .19.15.341.336.341h2.83a.338.338 0 0 0 .335-.34.338.338 0 0 0-.335-.341h-2.83Zm17.321-7.281c-2.971 0-5.39 2.455-5.39 5.471 0 3.017 2.419 5.472 5.39 5.472 2.972 0 5.39-2.455 5.39-5.472 0-3.016-2.418-5.47-5.39-5.47Zm0 10.26c-2.6 0-4.718-2.15-4.718-4.789 0-2.64 2.118-4.79 4.718-4.79 2.601 0 4.72 2.15 4.72 4.79s-2.115 4.79-4.72 4.79Z"/><path fill="#817AF3" d="M25.71 16.733c0-.353-.134-.686-.379-.935a1.291 1.291 0 0 0-1.833 0l-.976.991-.98-.995a1.297 1.297 0 0 0-1.83.004 1.327 1.327 0 0 0-.384.935c0 .353.135.686.384.935l.972.99-.972.987a1.328 1.328 0 0 0 0 1.87c.466.473 1.371.473 1.834 0l.976-.991.976.99c.24.245.577.385.916.385.34 0 .676-.14.917-.385.245-.248.38-.581.38-.934 0-.353-.135-.686-.38-.935l-.972-.987.972-.99c.242-.253.38-.582.38-.935Zm-.857.45-1.209 1.23a.345.345 0 0 0 0 .482l1.21 1.228c.118.12.181.28.181.449a.636.636 0 0 1-.182.45.64.64 0 0 1-.885 0l-1.213-1.232a.326.326 0 0 0-.237-.1.32.32 0 0 0-.237.1l-1.213 1.231c-.218.221-.668.221-.882 0a.64.64 0 0 1 0-.898l1.213-1.228a.346.346 0 0 0 .1-.24.339.339 0 0 0-.1-.241l-1.213-1.232a.64.64 0 0 1-.004-.898.624.624 0 0 1 .882-.004l1.217 1.231c.13.133.344.133.474 0l1.21-1.227a.622.622 0 0 1 .885 0c.118.12.181.28.181.449a.619.619 0 0 1-.178.45Z"/><path fill="#817AF3" d="M18.293 23.183H5.52c-1.07 0-1.94-.882-1.94-1.97V7.657c0-1.087.87-1.97 1.94-1.97h4.122v4.22a.742.742 0 0 0 .74.75.733.733 0 0 0 .37-.104l1.49-.887a.067.067 0 0 1 .068 0l1.49.883a.72.72 0 0 0 .739.004.742.742 0 0 0 .371-.65v-4.22h4.122c1.07 0 1.944.883 1.944 1.97v4.625c0 .188.15.34.336.34a.338.338 0 0 0 .336-.34V7.652C21.648 6.187 20.474 5 19.032 5H5.52C4.078 5 2.908 6.191 2.908 7.652V21.21c0 1.464 1.174 2.651 2.612 2.651h12.773a.338.338 0 0 0 .336-.34.337.337 0 0 0-.336-.338Zm-4.054-13.28a.064.064 0 0 1-.032.055.067.067 0 0 1-.067 0l-1.49-.882a.722.722 0 0 0-.743 0l-1.49.886a.067.067 0 0 1-.067 0c-.024-.012-.032-.032-.032-.056V5.682h3.924v4.22h-.004Z"/><path fill="#817AF3" d="M13.685 18.438h2.458a.338.338 0 0 0 .336-.341c0-.189-.15-.34-.336-.34h-2.458a.871.871 0 0 0-.861.878v2.005a.87.87 0 0 0 .861.875h2.932a.338.338 0 0 0 .336-.341.338.338 0 0 0-.335-.341h-2.933a.187.187 0 0 1-.186-.189V18.64c0-.113.083-.201.186-.201Z"/></svg>
